X:1
T:12 Deutsche und Italiänische Romantische Gesänge
T:Poesia di Metastasio [I]
T:Zwölf Deutsche und Italiänische Romantische Gesänge
T:5. Poesia di Metastasio (I)
T:Louise Reichardt
T:Pietro Metastasio
T:OpenScore (CC0)
T:OpenScore (CC0)
T:OpenScore (CC0)
C:Louise Reichardt
Z:Pietro Metastasio
Z:OpenScore (CC0)
%%score 1 { 2 | 3 }
L:1/8
Q:1/4=140
M:4/4
K:Db
V:1 treble nm="Voice"
V:2 treble nm="Piano"
V:3 bass 
V:1
"^Allegro agitato" B c | d3 d c3 c | c2 B2 z2 B c | e2 d2 z d c d | c2 B2 z2 B B | e3 e d3 d | %6
w: Giu- sto A-|mor tu che mi ac-|cen- di mi con-|si- glia e me dif-|fen- di nel pe-|ri- glio  e nel ti-|
{d} _c4 z ce g | g2 f2 z e d c | B4 z4 | z8 | z8 | z4 z2 A A | A4- A B c d | (d2 c2) z2 A A | %14
w: mor nel * pe-|ri- glio e nel ti-|mor.|||La ca-|gion * so- la  tu|se- i del mio|
 A4- A d (3fe d | d2 c2 z2 c c | d2 f2- fe dc | (c2 B2) z2 B B | Bc d3 (c/B/A/G/) F/=E/ | %19
w: ben, * de'  ma- * li|mie- i, giu- sto A-|mor Giu- * * sto A-|mor * mi dif-|fen- * de, mi * * * dif- *|
 E2 F2 z2 B c | d3 d c3 c | c2 B2 z2 B c | e2 d2 z d c d | c2 B2 z2 B B | e3 e d3 d | %25
w: fen- de. Giu- sto A-|mor tu chi mi ac-|cen- di mi con-|si- glia e me dif-|fen- de nel pe-|ri- glio e nel ti-|
{d} _c4 z ce g | g2 f2 z e d c | B4 z2 B B | B2 =A2 z c e d | c2 B2 z2 B B | c3 c c3 c | %31
w: mor nel * pe-|ri- glio e nel ti-|mor. Tu mi|gui- da al al- ma|fi- da con- tro il|bar- ba- ro fu-|
 d4 z2 d d | =d3 d e2 f2 | g4 fe dc | f3 F F2 =G =A | B4 _G2 E2 | F4- F FBd | f4- f e d c | B4 z4 | %39
w: ror con- tro il|bar- ba- ro fu-|ror con- * tro il|bar- ba- ro _ fu-|ror con- tro il|bar- * * * *|* * ba- ro fu-|ror.|
 z8 | z8 | z8 | x2 x2 x2 |] %43
w: ||||
V:2
 z2 | z FBd z E=Ac | z DFB z DFB | z FBd z E=Ac | z DFB z DFB | z GBe z FBd | z EG_c z EGc | %7
 z DFB z CE=A | z DFB z fff | (g2 f2) z cfe | (e2 d2) z ddd | dc cB BA A_G | A,DFD A,DFD | %13
 A,C_GC A,CGC | A,DFD A,DFD | A,C_GC CEGE | DFBF EF=AF | DFBF DFBF | D=EBE DEBE | CF=AF C z z2 | %20
 z FBd z E=Ac | z DFB z DFB | z FBd z E=Ac | z DFB z DFB | z GBe z FBd | z EG_c z EGc | %26
 z DFB z CE=A | D/F/B/F/ D/F/B/F/ D/F/B/F/ D/F/B/F/ | E/F/=A/F/ E/F/A/F/ E/F/A/F/ E/F/A/F/ | %29
 D/F/B/F/ D/F/B/F/ D/F/B/F/ D/F/B/F/ | F/=A/c/A/ F/A/c/A/ F/A/c/A/ F/A/c/A/ | %31
 F/B/d/B/ F/B/d/B/ F/B/d/B/ F/B/d/B/ | F/B/=d/B/ F/B/d/B/ G/B/e/B/ A/=d/f/d/ | %33
 B/e/g/e/ B/e/g/e/ c/e/g/e/ c/e/g/e/ | F/B/d/B/ F/B/d/B/ E/=A/c/A/ E/A/c/A/ | %35
 D/_G/B/G/ D/G/B/G/ E/G/B/G/ E/G/B/G/ | D/F/B/F/ D/F/B/F/ D/F/B/F/ D/F/B/F/ | %37
 C/E/=A/E/ C/E/A/E/ C/E/A/E/ C/E/A/E/ | B2 z2 z fff | (g2 f2) z cfe | (e2 d2) z ddd | %41
 dc eg z f z =A | B2 [DF]2 [B,D]2 |] %43
V:3
 z2 | B,4 F,4 | B,,4 B,,4 | B,,4 F,4 | B,4 B,4 | G,4 F,4 | E,4 E,4 | F,4 F,4 | B,,4 B,4 | %9
 =A,FCF A,FCF | B,FDF B,FDF | E2 D2 C2 [C,A,]2 | D,2 z2 D,2 z2 | A,,2 z2 A,,2 z2 | D,2 z2 D,2 z2 | %15
 A,,2 z2 =A,,4 | B,,4 C,4 | D,4 D,4 | G,,8 | F,,4"_V.S." z4 | B,4 F,4 | B,,4 B,,4 | B,,4 F,4 | %23
 B,4 B,4 | G,4 F,4 | E,4 E,4 | F,4 F,4 | B,,2 B,2 B,2 B,2 | [F,C]8 | [B,,B,]8 | F,8 | B,8 | %32
 A,4 G,2 F,2 | E,4 E,4 | F,4 F,4 | G,4 E,4 | F,4 F,4 | F,,4 F,,4 | B,FDF B,FDF | =A,FCF A,FCF | %40
 B,FDF B,FDF | E2 E,2 F,2 F,,2 | B,,2 z2 z2 |] %43

